src/assets/plus-icon-static.svg

<svg width="28" height="28" viewBox="0 0 28 28" fill="none" xmlns="http://www.w3.org/2000/svg">
<path d="M25.4995 12.3337H15.4995V2.33366C15.4995 1.89163 15.3239 1.46771 15.0114 1.15515C14.6988 0.842587 14.2749 0.666992 13.8328 0.666992C13.3908 0.666992 12.9669 0.842587 12.6543 1.15515C12.3418 1.46771 12.1662 1.89163 12.1662 2.33366V12.3337H2.16618C1.72415 12.3337 1.30023 12.5093 0.987667 12.8218C0.675107 13.1344 0.499512 13.5583 0.499512 14.0003C0.499512 14.4424 0.675107 14.8663 0.987667 15.1788C1.30023 15.4914 1.72415 15.667 2.16618 15.667H12.1662V25.667C12.1662 26.109 12.3418 26.5329 12.6543 26.8455C12.9669 27.1581 13.3908 27.3337 13.8328 27.3337C14.2749 27.3337 14.6988 27.1581 15.0114 26.8455C15.3239 26.5329 15.4995 26.109 15.4995 25.667V15.667H25.4995C25.9415 15.667 26.3655 15.4914 26.678 15.1788C26.9906 14.8663 27.1662 14.4424 27.1662 14.0003C27.1662 13.5583 26.9906 13.1344 26.678 12.8218C26.3655 12.5093 25.9415 12.3337 25.4995 12.3337Z" fill="#1a73e8"/>
</svg>

<svg width="28" height="28" fill="none" xmlns="http://www.w3.org/2000/svg"><path d="M25.5 12.334h-10v-10a1.667 1.667 0 00-3.334 0v10h-10a1.667 1.667 0 000 3.333h10v10a1.667 1.667 0 003.333 0v-10h10a1.666 1.666 0 100-3.333z" fill="#1a73e8"/></svg>
